X: 18206
T: Humours Of Glendart, The
R: jig
M: 6/8
K: Dmajor
BAF ADD|FDD ADD|BAF ADD|FEE EFA|
BAF ADD|FDF ABd|edB BAF|AFE EFA:|
def d2B|ABA AFA|def d2f|ede fdB|
def edB|ABA ABc|dcB AFE|FDD D2A:|

